X:49
T: Und wenn der liebe Gott wollte (Band 1), S. 149
N: P0824
O: Lothringen
S: PINCK, Louis: Verklingende Weisen, Bd 1, Metz 1928]
R: Liebe, Trennung / Abschied, Krieg, Tod]
M: 4/4
L: 1/8
K: G
D2 | G3A_BBA2 | G_BA2z2
D2 | G3A_B2A2 | G_BA2z2
GA | _B2dcd3_e | dc_BcdBA
c | _B2AAG2A2 | _B2A2G2FF | G4z2
GA | _B2dcd3_e | dc_BcdBA
c | _B2AAG2A2 | _B2A2G2FF | G4z2

@@@ Tune index: 7599
